webapp/src/assets/icons/cloudproviders/aws/networking_content_delivery/elastic_network_interface.svg

<svg width="48" height="48" xmlns="http://www.w3.org/2000/svg"><path d="M22.376 25.627h4.126v-4.126h-4.126v4.126Zm6.126 0h4.125v-4.126h-4.125v4.126Zm-7.126 2h12.251a1 1 0 0 0 1-1v-6.126a1 1 0 0 0-1-1H21.376a1 1 0 0 0-1 1v6.126a1 1 0 0 0 1 1Zm16.501 1.5h-2.5a1 1 0 0 0-1 1v1.625h-2.375v-1.625a1 1 0 0 0-1-1h-3.5a1 1 0 0 0-1 1v1.625h-6.751v-1.625a1 1 0 0 0-1-1h-.75V18.001h19.876v11.126Zm1-13.126H17.001a1 1 0 0 0-1 1v13.126a1 1 0 0 0 1 1h.75v1.625a1 1 0 0 0 1 1h8.751a1 1 0 0 0 1-1v-1.625h1.5v1.625a1 1 0 0 0 1 1h4.375a1 1 0 0 0 1-1v-1.625h2.5a1 1 0 0 0 1-1V17.001a1 1 0 0 0-1-1Zm-24.376-.75v19.251a1 1 0 0 1-1 1H10.35v-2h2.151V16.251H10.35v-2h3.151a1 1 0 0 1 1 1Zm9.501 28.752C12.972 44.003 4 35.03 4 24.001 4 12.973 12.972 4 24.002 4c11.028 0 20 8.973 20 20.001 0 11.029-8.972 20.002-20 20.002Zm0-42.003C11.87 2 2 11.869 2 24.001c0 12.132 9.87 22.002 22.002 22.002 12.131 0 22-9.87 22-22.002S36.133 2 24.002 2Z" fill="#8C4FFF" fill-rule="evenodd"/></svg>

<?xml version="1.0" encoding="UTF-8"?>
<svg width="48px" height="48px" viewBox="0 0 48 48" version="1.1" xmlns="http://www.w3.org/2000/svg" xmlns:xlink="http://www.w3.org/1999/xlink">
    <title>Icon-Resource/Networking-and-Content-Delivery/Res_Amazon-VPC_Elastic-Network-Interface_48</title>
    <g id="Icon-Resource/Networking-and-Content-Delivery/Res_Amazon-VPC_Elastic-Network-Interface_48" stroke="none" stroke-width="1" fill="none" fill-rule="evenodd">
        <path d="M22.376,25.627 L26.502,25.627 L26.502,21.501 L22.376,21.501 L22.376,25.627 Z M28.502,25.627 L32.627,25.627 L32.627,21.501 L28.502,21.501 L28.502,25.627 Z M21.376,27.627 L33.627,27.627 C34.179,27.627 34.627,27.18 34.627,26.627 L34.627,20.501 C34.627,19.948 34.179,19.501 33.627,19.501 L21.376,19.501 C20.823,19.501 20.376,19.948 20.376,20.501 L20.376,26.627 C20.376,27.18 20.823,27.627 21.376,27.627 L21.376,27.627 Z M37.877,29.127 L35.377,29.127 C34.824,29.127 34.377,29.574 34.377,30.127 L34.377,31.752 L32.002,31.752 L32.002,30.127 C32.002,29.574 31.554,29.127 31.002,29.127 L27.502,29.127 C26.949,29.127 26.502,29.574 26.502,30.127 L26.502,31.752 L19.751,31.752 L19.751,30.127 C19.751,29.574 19.303,29.127 18.751,29.127 L18.001,29.127 L18.001,18.001 L37.877,18.001 L37.877,29.127 Z M38.877,16.001 L17.001,16.001 C16.448,16.001 16.001,16.448 16.001,17.001 L16.001,30.127 C16.001,30.68 16.448,31.127 17.001,31.127 L17.751,31.127 L17.751,32.752 C17.751,33.305 18.198,33.752 18.751,33.752 L27.502,33.752 C28.054,33.752 28.502,33.305 28.502,32.752 L28.502,31.127 L30.002,31.127 L30.002,32.752 C30.002,33.305 30.449,33.752 31.002,33.752 L35.377,33.752 C35.929,33.752 36.377,33.305 36.377,32.752 L36.377,31.127 L38.877,31.127 C39.429,31.127 39.877,30.68 39.877,30.127 L39.877,17.001 C39.877,16.448 39.429,16.001 38.877,16.001 L38.877,16.001 Z M14.501,15.251 L14.501,34.502 C14.501,35.055 14.053,35.502 13.501,35.502 L10.35,35.502 L10.35,33.502 L12.501,33.502 L12.501,16.251 L10.35,16.251 L10.35,14.251 L13.501,14.251 C14.053,14.251 14.501,14.698 14.501,15.251 L14.501,15.251 Z M24.002,44.003 C12.972,44.003 4,35.03 4,24.001 C4,12.973 12.972,4 24.002,4 C35.03,4 44.002,12.973 44.002,24.001 C44.002,35.03 35.03,44.003 24.002,44.003 L24.002,44.003 Z M24.002,2 C11.87,2 2,11.869 2,24.001 C2,36.133 11.87,46.003 24.002,46.003 C36.133,46.003 46.002,36.133 46.002,24.001 C46.002,11.869 36.133,2 24.002,2 L24.002,2 Z" id="AWS-Amazon-VPC_Elastic-network-interface_Resource-Icon_light-bg" fill="#8C4FFF"></path>
    </g>
</svg>
